packages/ffe-icons/icons/filled/md/h_mobiledata.svg

<svg xmlns="http://www.w3.org/2000/svg" height="24" viewBox="0 -960 960 960" width="24"><path d="M349.999-450.001v140.002q0 12.749-8.628 21.374Q332.742-280 319.987-280q-12.756 0-21.371-8.625-8.615-8.625-8.615-21.374v-340.002q0-12.749 8.628-21.374Q307.258-680 320.013-680q12.756 0 21.371 8.625 8.615 8.625 8.615 21.374v140.002h260.002v-140.002q0-12.749 8.628-21.374Q627.258-680 640.013-680q12.756 0 21.371 8.625 8.615 8.625 8.615 21.374v340.002q0 12.749-8.628 21.374Q652.742-280 639.987-280q-12.756 0-21.371-8.625-8.615-8.625-8.615-21.374v-140.002H349.999Z"/></svg>

<svg xmlns="http://www.w3.org/2000/svg" height="24" viewBox="0 -960 960 960" width="24"><path d="M350-450v140q0 12.75-8.63 21.38-8.63 8.62-21.38 8.62-12.76 0-21.37-8.62Q290-297.25 290-310v-340q0-12.75 8.63-21.38 8.63-8.62 21.38-8.62 12.76 0 21.37 8.62Q350-662.75 350-650v140h260v-140q0-12.75 8.63-21.38 8.63-8.62 21.38-8.62 12.76 0 21.37 8.62Q670-662.75 670-650v340q0 12.75-8.63 21.38-8.63 8.62-21.38 8.62-12.76 0-21.37-8.62Q610-297.25 610-310v-140H350Z"/></svg>
